icons/editor/file-add.svg

<svg width="32" height="32" viewBox="0 0 32 32" fill="none" xmlns="http://www.w3.org/2000/svg">
<path fill-rule="evenodd" clip-rule="evenodd" d="M8 2C6.89543 2 6 2.89543 6 4V28C6 29.1046 6.89543 30 8 30H24C25.1046 30 26 29.1046 26 28V10.4142C26 9.88378 25.7893 9.37507 25.4142 9L19 2.58579C18.6249 2.21071 18.1162 2 17.5858 2H8ZM16 4H8V28H24V12H18C16.8954 12 16 11.1046 16 10V4ZM23.5858 10L18 4.41421V10H23.5858ZM15 19V15H17V19H21V21H17V25H15V21H11V19H15Z" fill="black"/>
</svg>

<svg width="32" height="32" viewBox="0 0 32 32" xmlns="http://www.w3.org/2000/svg">
    <path fill-rule="evenodd" d="M8 2a2 2 0 00-2 2v24a2 2 0 002 2h16a2 2 0 002-2V10.414A2 2 0 0025.414 9L19 2.586A2 2 0 0017.586 2H8zm8 2H8v24h16V12h-6a2 2 0 01-2-2V4zm7.586 6L18 4.414V10h5.586zM15 19v-4h2v4h4v2h-4v4h-2v-4h-4v-2h4z"/>
</svg>
